Sources/FrostedUI/Resources/Icons.xcassets/profile20.imageset/profile-20.svg

<svg width="20" height="20" viewBox="0 0 20 20" fill="none" xmlns="http://www.w3.org/2000/svg" data-fui-icon="true">
  <path
    d="M10.0005 10.292C13.157 10.292 15.5713 12.1818 16.5522 14.834C16.8245 15.5703 16.6381 16.2958 16.2046 16.8125C15.7814 17.3166 15.1261 17.625 14.4194 17.625H5.58154C4.87492 17.6249 4.21953 17.3167 3.79639 16.8125C3.36292 16.2959 3.17659 15.5702 3.44873 14.834C4.42961 12.1819 6.84425 10.2922 10.0005 10.292ZM10.0005 11.792C7.50535 11.7922 5.63088 13.2592 4.85596 15.3545C4.78786 15.539 4.82551 15.7053 4.9458 15.8486C5.07654 16.0041 5.30678 16.1249 5.58154 16.125H14.4194C14.6942 16.125 14.9243 16.004 15.0552 15.8486C15.1755 15.7052 15.2133 15.5391 15.145 15.3545C14.3701 13.2591 12.4959 11.792 10.0005 11.792ZM10.0005 1.54199C12.1406 1.542 13.8755 3.2769 13.8755 5.41699C13.8753 7.55695 12.1405 9.29198 10.0005 9.29199C7.8607 9.29176 6.12565 7.55681 6.12549 5.41699C6.12549 3.27703 7.86059 1.54222 10.0005 1.54199ZM10.0005 3.04199C8.68903 3.04222 7.62549 4.10545 7.62549 5.41699C7.62565 6.72839 8.68913 7.79176 10.0005 7.79199C11.3121 7.79198 12.3753 6.72853 12.3755 5.41699C12.3755 4.10532 11.3122 3.042 10.0005 3.04199Z"
    fill="currentColor"
  />
</svg>

<svg xmlns="http://www.w3.org/2000/svg" width="20" height="20" fill="none" data-fui-icon="true" viewBox="0 0 20 20"><path fill="currentColor" d="M10 10.292c3.157 0 5.571 1.89 6.552 4.542a1.97 1.97 0 0 1-.347 1.979 2.33 2.33 0 0 1-1.786.812H5.582a2.33 2.33 0 0 1-1.786-.812 1.97 1.97 0 0 1-.347-1.979c.98-2.652 3.395-4.542 6.552-4.542m0 1.5c-2.495 0-4.37 1.467-5.144 3.563a.47.47 0 0 0 .09.494c.13.155.36.276.636.276h8.837a.84.84 0 0 0 .636-.276.47.47 0 0 0 .09-.495c-.775-2.095-2.65-3.562-5.144-3.562m0-10.25a3.875 3.875 0 1 1 0 7.75 3.875 3.875 0 0 1 0-7.75m0 1.5a2.375 2.375 0 1 0 .001 4.75 2.375 2.375 0 0 0 0-4.75"/></svg>
